X:1
T:Potsdam, SM
T:Adapted from Johann Sebastian Bach, 1750
T:Potsdam, SM
T:Public Domain
C:Adapted from Johann Sebastian Bach, 1750
Z:Public Domain
%%score ( 1 2 ) ( 3 4 )
L:1/8
M:4/4
K:E
V:1 treble 
V:2 treble 
V:3 bass 
V:4 bass 
V:1
 [B,E]2 | [B,F]2 [EA]2 [EG]2 [DF]2 | E6 [EB]2 | [Gc]2 [Ee]2 [Fd]2 (FE) | [DB]6 [EG]2 | %5
 [EA]2 [Ec]2 [DB]2 [FA]2 | [EG]2 [E^A]2 [DB]2 E2 | [EF]2 [EA]2 [EG]2 [DF]2 | E6 |] %9
V:2
 x2 | x8 | E6 x2 | x6 c2 | x8 | x8 | x6 E2 | x8 | E6 |] %9
V:3
 [E,G,]2 | [D,F,]2 [C,E,]2 [B,,B,]2 (B,A,) | [E,G,]6 [G,B,]2 | [E,G,]2 [C,G,]2 [F,B,]2 [F,^A,]2 | %4
 [B,,B,]6 [E,B,]2 | [C,A,]2 [A,,A,]2 [B,,F,]2 [D,B,]2 | [E,B,]2 [C,F,]2 [B,,F,]2 [G,,B,]2 | %7
 [A,,C]2 [F,,C]2 [B,,B,]2 (B,A,) | [E,G,]6 |] %9
V:4
 x2 | x6 B,,2 | x8 | x8 | x8 | x8 | x8 | x6 B,,2 | x6 |] %9

